22x22/apps/airstrike.svg

<svg width="22" height="22" version="1.1" xmlns="http://www.w3.org/2000/svg">
 <path d="m8 17.5h6l-1 4h-4z" style="opacity:.2"/>
 <path d="m12.50005 17.5v-4" style="fill:none;stroke-linecap:round;stroke-linejoin:round;stroke-width:1px;stroke:#f4f4f7"/>
 <path d="m9.5 17.5v-4" style="fill:none;stroke-linecap:round;stroke-linejoin:round;stroke-width:1px;stroke:#f4f4f7"/>
 <circle cx="11" cy="8.5" r="7" style="opacity:.2"/>
 <circle cx="11" cy="8" r="7" style="fill:#db3c30"/>
 <path d="m8 17h6l-1 4h-4z" style="fill:#906739"/>
 <path d="m11 15s-2-3-2-7 2-7 2-7-5 2-5 7 5 7 5 7z" style="fill:#f4f4f7"/>
 <path d="m11 15s2-3 2-7-2-7-2-7 5 2 5 7-5 7-5 7z" style="fill:#f4f4f7"/>
 <path d="M 11 1 A 7 7 0 0 0 4 8 A 7 7 0 0 0 4.0097656 8.2929688 A 7 7 0 0 1 11 1.5 A 7 7 0 0 1 17.990234 8.2070312 A 7 7 0 0 0 18 8 A 7 7 0 0 0 11 1 z " style="fill:#f4f4f7;opacity:.2"/>
 <path d="m8 17 0.125 0.5h5.75l0.125-0.5h-6z" style="fill:#f4f4f7;opacity:.1"/>
</svg>

<svg width="22" height="22" xmlns="http://www.w3.org/2000/svg"><path d="M8 17.5h6l-1 4H9z" style="opacity:.2"/><path d="M12.5 17.5v-4M9.5 17.5v-4" style="fill:none;stroke-linecap:round;stroke-linejoin:round;stroke-width:1px;stroke:#f4f4f7"/><circle cx="11" cy="8.5" r="7" style="opacity:.2"/><circle cx="11" cy="8" r="7" style="fill:#db3c30"/><path d="M8 17h6l-1 4H9z" style="fill:#906739"/><path d="M11 15s-2-3-2-7 2-7 2-7-5 2-5 7 5 7 5 7zM11 15s2-3 2-7-2-7-2-7 5 2 5 7-5 7-5 7z" style="fill:#f4f4f7"/><path d="M11 1a7 7 0 0 0-7 7 7 7 0 0 0 .01.293A7 7 0 0 1 11 1.5a7 7 0 0 1 6.99 6.707A7 7 0 0 0 18 8a7 7 0 0 0-7-7z" style="fill:#f4f4f7;opacity:.2"/><path d="m8 17 .125.5h5.75L14 17H8z" style="fill:#f4f4f7;opacity:.1"/></svg>
